X: 1103
T: Drowsy Maggie
B: jims roots
B: ralph
M:4/4
L:1/8
R: reel
Q: 1/4=100
K:Edor
V:1 
"Em"E2 GE BEGE |"Em" E2 GB "D"ADFD |"Em" E2 GE BEGE |"G" BABc "D"dAFD |
"Em"E2 GE BEGE |"Em" E2 GB "D"ADFD |"Em" E2 GE BEGE |"G" BABc "D"dAFA:|
|:"D"d2 fd "A"c2 ec |"D" defg "D"af "Em"ge |"D" d2 fd "A"c2 ec |"G" BABc "D"dAFA |
"D"d2 fd "A"c2 ec |"D" defg "D"af"Em"ge |"D" af"Em"ge "D"fd"Em"ec |"G" BABc "D"dAFD:|]
% abcbook-tune_id 6298c2459dd9aa623f702b4f


% abcbook-boost 0
% abcbook-tablature 
% abcbook-transpose 
% abcbook-lastupdated 1654178374023
% abcbook-soundfonts 
% abcbook-repeats 1


